outputs/icons/audio_video/volume_off_round.svg

<svg width="1200" height="1200" viewBox="0 0 1200 1200" fill="none" xmlns="http://www.w3.org/2000/svg"><g clip-path="url(#clip0_231_5141)"><path d="M181.5 181.495C162 200.995 162 232.495 181.5 251.995L364.5 434.995L350 449.995H200C172.5 449.995 150 472.495 150 499.995V699.995C150 727.495 172.5 749.995 200 749.995H350L514.5 914.495C546 945.995 600 923.495 600 878.995V670.495L809 879.495C784.5 897.995 758 913.495 729 924.995C711 932.495 700 951.495 700 970.995C700 1006.995 736.5 1029.995 769.5 1016.495C809.5 999.995 847 977.995 880.5 950.995L947.5 1017.995C967 1037.495 998.5 1037.495 1018 1017.995C1037.5 998.495 1037.5 966.995 1018 947.495L252.5 181.495C233 161.995 201.5 161.995 181.5 181.495ZM950 599.995C950 640.995 942.5 680.495 929.5 716.995L1006 793.495C1034 734.995 1050 669.495 1050 599.995C1050 408.495 930 244.495 761 179.995C731.5 168.495 700 191.495 700 222.995V232.495C700 251.495 712.5 267.995 730.5 274.995C859 326.995 950 452.995 950 599.995ZM514.5 285.495L506 293.995L600 387.995V320.495C600 275.995 546 253.995 514.5 285.495ZM825 599.995C825 511.495 774 435.495 700 398.495V487.995L824 611.995C824.5 607.995 825 603.995 825 599.995Z" fill="black"/></g><defs><clipPath id="clip0_231_5141"><path width="24" fill="white" d="M0 0H1200V1200H0V0z"/></clipPath></defs></svg>

<svg xmlns="http://www.w3.org/2000/svg" width="1200" height="1200" fill="none"><g clip-path="url(#a)"><path fill="#000" d="M181.5 181.495c-19.5 19.5-19.5 51 0 70.5l183 183-14.5 15H200c-27.5 0-50 22.5-50 50v200c0 27.5 22.5 50 50 50h150l164.5 164.5c31.5 31.5 85.5 9 85.5-35.5v-208.5l209 209c-24.5 18.5-51 34-80 45.5-18 7.5-29 26.5-29 46 0 36 36.5 59 69.5 45.5 40-16.5 77.5-38.5 111-65.5l67 67c19.5 19.5 51 19.5 70.5 0s19.5-51 0-70.5l-765.5-766c-19.5-19.5-51-19.5-71 0m768.5 418.5c0 41-7.5 80.5-20.5 117l76.5 76.5c28-58.5 44-124 44-193.5 0-191.5-120-355.5-289-420-29.5-11.5-61 11.5-61 43v9.5c0 19 12.5 35.5 30.5 42.5 128.5 52 219.5 178 219.5 325m-435.5-314.5-8.5 8.5 94 94v-67.5c0-44.5-54-66.5-85.5-35m310.5 314.5c0-88.5-51-164.5-125-201.5v89.5l124 124c.5-4 1-8 1-12"/></g><defs><clipPath id="a"><path fill="#fff" d="M0 0h1200v1200H0z"/></clipPath></defs></svg>
